X:1
T:James Gibb editions
T:Psalm 119, pt 5 (Becker) - Schütz
%%score [ ( 1 2 ) 3 4 ( 5 6 ) ]
L:1/8
Q:1/4=98
M:2/2
K:C
V:1 treble nm="Soprano Alto" snm="S"
V:2 treble 
V:3 treble nm="Alto" snm="A"
V:4 treble nm="Tenor" snm="T"
V:5 bass nm="Tenor Bass" snm="B"
V:6 bass 
V:1
"^Cornelius Becker\n(1561-1604)""^Psalm 119, part 5, SWV 221""^Heinrich Schütz\n(1585-1672)" A2 | %1
w: ~~~Dein|
w: so|
 B2 B2 B2 B2 | c4 A2 c2 | A2 G2 G2 F2 | E6 :| E2 | F2 F2 G2 F2 |[M:2/2] E2 D2 C2 G2 | A2 B2 c2 c2 | %9
w: Wort, Herr, nicht ver-|ge- het, es|blei- bet e- wig-|lich,|||E- wig- keit, gleich-|wie der Grund der|
w: weit der Him- mel|ge- het, der|stets be- we- get|sich,|||||
 d4 G2 c2 | B4 A4 | (^G2 A4) !courtesy!^G2 | A6 |] %13
w: Er- den, durch|dei- ne|Hand * be-|reit.|
w: ||||
V:2
 E2 | ^G2 G2 G2 G2 | A4 E2 F2 | F2 E2 E2 D2 | B,6 :| ^C2 | D2 D2 E2 C2 |[M:2/2] x8 | x8 | x8 | x8 | %11
w: |||||dein|Wahr- heit bleibt in|||||
 x8 | x6 |] %13
w: ||
V:3
 z2 | z8 | z8 | z8 | z6 :| z2 | z8 |[M:2/2][K:treble] C2 B,2 C2 E2 | E2 G2 A2 G2 | F4 E4 | %10
w: |||||||E- wig- keit, gleich-|wie der Grund der|Er- den,|
 z2 D2 F2 F2 | E6 E2 | E6 |] %13
w: durch dei- ne|Hand be-|reit.|
V:4
 z2 | z8 | z8 | z8 | z6 :| z2 | z8 |[M:2/2][K:treble-8] G2 G2 G2 c2 | c2 d2 f2 c2- | c2 B2 c4 | %10
w: |||||||E- wig- keit, gleich-|wie der Grund der|* Er- den,|
 z2 B2 d4- | d2 c2 B2 B2 | A6 |] %13
w: durch dei\-|* ne Hand be-|reit.|
V:5
 C2 | E2 E2 E2 E2 | E4 C2 A,2 | C2 C2 C2 A,2 | ^G,6 :| A,2 | A,2 A,2 C2 A,2 | %7
w: |||||||
[M:2/2] C,2 G,,2 C,2 C2 | %8
w: E- wig- keit, gleich-|
 A,2 G,2 F,2"^46. Es bleib'n nach deinem Worte all Ding in ihrem Stand\nund gehen immerforte im Dienste dir zu Hand.\nWenn dein Wort, Herr, mein Trost nicht wär,\nhätt ich längst müßt vergehen in meinem Elend schwer.\n\n47. Ich will nimmer vergessen dein göttlichen Befehl,\nder wird aufs allerbeste erquicken meine Seel.\nHerr, ich bin dein, und du bist mein,\ndein Hülf mir nicht versage, wenn ich begehre dein.\n\n56. Dein Zeugnis sollen bleiben mein Erb in Ewigkeit,\ndas Herzleid sie vertreiben, sie sind mein Wonn und Freud,\nmein Herz ich neige mit Begier,\nzu tun nach deinem Willen, dieweil ich leb vor dir." E,2 | %9
w: wie der Grund der|
 D,4 C,2 E,2 | G,4 D,4 | E,6 E,2 | A,,6 |] %13
w: Er- den, durch|dei- ne|Hand be-|reit.|
V:6
 A,2 | E,2 E,2 E,2 E,2 | A,4 A,2 F,2 | F,2 C,2 C,2 D,2 | E,6 :| A,,2 | D,2 D,2 C,2 F,,2 | %7
[M:2/2] x8 | x8 | x8 | x8 | x8 | x6 |] %13

